X:0537
T:The Chaplet.
M:C|
L:1/8
Q:1/2=104
I: :: ::
Z:Jack Campin * www.campin.me.uk * 2009
K:D
a2    f/g/a  g2 e/f/g|fdAf     ecA2|dAfd     gebg|faAc d2D2::
AF/G/ Af     edef    |AF/G/ Af e2e2|AF/G/ Af edef|gfed e2A2 |
A2   (f/g/a) g2 e/f/g|fdAf     ecA2|dAfd     gebg|faAc d2D2:|

